X: 362
T: Bir Elif Çekdi Yine
C: Ebûbekir Ağa
O: Turkey
F: http://compmusic.upf.edu/node/140
N: besteisfahan--yuruksemai--yuruksemai--bir_elif--ebubekir_aga
N: makam= besteisfahan
N: form= yuruksemai
N: usul= yuruksemai = 6/8
M: 6/8
L: 1/16
K: C _1/4B   
Q: 1/4=108
%%MIDI tuningsystem comma53
d6^c2 =B4c4 d8  | d8 e4c4 d4z4  | z4G4 d4d2c2 d8  | \
w:  Ah  *  bir  e lif   |  çek di  yi ne   |  sî ne me  *  câ  | 
e2d2d2c2 d4e2f2 e2d2c2_2/4B2  | 
w:  nân  *  *  *  bu  ge *  ce   | 
d2c2c2d2 c2d2c2de d2c4_2/4B2  | c4c2d2 c2_2/4B2d2c2 d2e2d2c2  | 
w:  vay    |  A man  *  *  *  ey   | 
_2/4B4B8d4 d2^c2_1/4B2^A2  | B4B6d2d2c2 B2^A2A2G2  | \
w:  a man  ey   |  a man  *  ey   | 
A2_2/4B2A2G4^3/4F2AGF^3/4E F4z4  | 
w:  a *  man  *  *  ey   | 
^3/4F4F4 B4B2^A2 B8  | z4^A4 B4c4 d8  | \
w:  yâr  a man  a *  man    |  Sî ne me  câ  | 
e2d4c2 _2/4B4e4 d4e2d2  | c3ed2c2 _2/4B4c2B2 A4z4  | 
w:  nân  *  *  bu  ge ce   |   | 
A8 G4_2/4B4 A2G4^3/4F2  | ^3/4F8 d4=B2^c2 d4z4  | \
w:  yâr  bu  ge ce   |  vay  câ *  *  nım    | 
d6^c2 =B4c4 d8  | d8 e4c4 d4z4  | 
w:  Ah  *  bir  e lif   |  çek di  yi ne   | 
z4G4 d4d2c2 d8  | e2d2d2c2 d4e2f2 e2d2c2_2/4B2  | \
w:  sî ne me  *  câ  |  nân  *  *  *  bu  ge *  ce   | 
d2c2c2d2 c2d2c2de d2c4_2/4B2  | 
w:  vay    | 
c4c2d2 c2_2/4B2d2c2 d2e2d2c2  | _2/4B4B8d4 d2^c2_1/4B2^A2  | \
w:  A man  *  *  *  ey   |  a man  ey   | 
B4B6d2d2c2 B2^A2A2G2  | 
w:  a man  *  ey   | 
A2_2/4B2A2G4^3/4F2AGF^3/4E F4z4  | \
w:  a *  man  *  *  ey   | 
^3/4F4F4 B4B2^A2 B8  | z4^A4 B4c4 d8  | 
w:  yâr  a man  a *  man    |  Sî ne me  câ  | 
e2d4c2 _2/4B4e4 d4e2d2  | c3ed2c2 _2/4B4c2B2 A4z4  | \
w:  nân  *  *  bu  ge ce   |   | 
A8 G4_2/4B4 A2G4^3/4F2  | 
w:  yâr  bu  ge ce   | 
^3/4F8 ^3/4f4^3/4e2g2 f4z4  | ^3/4f6^3/4e2 d4e4 f8  | \
w:  vay  câ *  *  nım    |  Ah  *  a yın  on  | 
^3/4f2g2f2^3/4e2 f4a2g2 f2g2e2f2  | 
w:  dör *  *  *  dü  gi *  bi   | 
d4^c4 d4^e4 ^f8  | g6^3/4f2 _2/4b4a2g2 g8  | \
w:  *  dün  ge ce  mec  |  lis *  de  i *  di   | 
ag^3/4f^3/4ef16z4  | ^3/4f4e2f2 e2d2f4 g4z4  | 
w:  vay    |  A man  *  *  *  ey   | 
e4e2f2 e2d2e2d2 e4z4  | c4d6c2e2d2 c2_2/4B2A2G2  | \
w:  a man  *  *  *  ey   |  a man  *  ey   | 
A2_2/4B2A2G4^3/4F2AGF^3/4E F4z4  | 
w:  a *  man  *  *  ey   | 
^3/4F4F4 B4B2^A2 B4z4  | z4^A4 B4c4 d8  | \
w:  yâr  a man  a *  man    |  Dün  ge ce  mec  | 
e2d4c2 _2/4B4e4 d4e2d2  | c3ed2c2 _2/4B4c2B2 A8  | 
w:  lis *  *  de  i di   |  *  *  *  *  *  *  *  mec  | 
A8 G4_2/4B4 A2G4^3/4F2  | ^3/4F8 d4=B2^c2 d4z4  | \
w:  lis de  i di   |  vay  câ *  *  nım    | 
d6^c2 =B4c4 d8  | d8 e4c4 d4z4  | 
w:  Ah  *  kan de  ak  |  şam la ya cak   | 
z4G4 d4d2c2 d8  | e2d2d2c2 d4e2f2 e2d2c2_2/4B2  | \
w:  ol  meh_ i  *  tâ  |  bân  *  *  *  bu  ge *  ce   | 
d2c2c2d2 c2d2c2de d2c4_2/4B2  | 
w:  vay    | 
c4c2d2 c2_2/4B2d2c2 d2e2d2c2  | _2/4B4B8d4 d2^c2_1/4B2^A2  | \
w:  A man  *  *  *  ey   |  a man  ey   | 
B4B6d2d2c2 B2^A2A2G2  | 
w:  a man  *  ey   | 
A2_2/4B2A2G4^3/4F2AGF^3/4E F4z4  | \
w:  a *  man  *  *  ey   | 
^3/4F4F4 B4B2^A2 B8  | z4^A4 B4c4 d8  | 
w:  yâr  a man  a *  man    |  Sî ne me  câ  | 
e2d4c2 _2/4B4e4 d4e2d2  | c3ed2c2 _2/4B4c2B2 A4z4  | \
w:  nân  *  *  bu  ge ce   |   | 
A8 G4_2/4B4 A2G4^3/4F2  | 
w:  yâr  bu  ge ce   | 
^3/4F12z8z4  | |


